swiss/communes/5635.svg

<?xml version="1.0" encoding="UTF-8" standalone="no"?>
<!-- Created with Inkscape (http://www.inkscape.org/) -->
<svg
   xmlns:dc="http://purl.org/dc/elements/1.1/"
   xmlns:cc="http://creativecommons.org/ns#"
   xmlns:rdf="http://www.w3.org/1999/02/22-rdf-syntax-ns#"
   xmlns:svg="http://www.w3.org/2000/svg"
   xmlns="http://www.w3.org/2000/svg"
   xmlns:xlink="http://www.w3.org/1999/xlink"
   xmlns:sodipodi="http://sodipodi.sourceforge.net/DTD/sodipodi-0.dtd"
   xmlns:inkscape="http://www.inkscape.org/namespaces/inkscape"
   width="500"
   height="627.35999"
   id="svg2"
   sodipodi:version="0.32"
   inkscape:version="0.46"
   version="1.0"
   sodipodi:docname="Wappen Ecublens VD.svg"
   inkscape:output_extension="org.inkscape.output.svg.inkscape">
  <defs
     id="defs4">
    <inkscape:perspective
       sodipodi:type="inkscape:persp3d"
       inkscape:vp_x="0 : 526.18109 : 1"
       inkscape:vp_y="0 : 1000 : 0"
       inkscape:vp_z="744.09448 : 526.18109 : 1"
       inkscape:persp3d-origin="372.04724 : 350.78739 : 1"
       id="perspective10" />
    <inkscape:perspective
       sodipodi:type="inkscape:persp3d"
       inkscape:vp_x="0 : 420.94501 : 1"
       inkscape:vp_y="0 : 1000 : 0"
       inkscape:vp_z="595.27502 : 420.94501 : 1"
       inkscape:persp3d-origin="297.63751 : 280.63 : 1"
       id="perspective2500" />
    <radialGradient
       r="300"
       fy="579.93323"
       fx="858.04236"
       cy="579.93323"
       cx="858.04236"
       gradientTransform="matrix(1.21503,0,0,1.26667,-839.192,-490.489)"
       gradientUnits="userSpaceOnUse"
       id="radialGradient3236"
       xlink:href="#linearGradient2893"
       inkscape:collect="always" />
    <linearGradient
       id="linearGradient2955">
      <stop
         id="stop2965"
         offset="0"
         style="stop-color: white; stop-opacity: 0;" />
      <stop
         id="stop2959"
         offset="1"
         style="stop-color: black; stop-opacity: 0.645833;" />
    </linearGradient>
    <linearGradient
       id="linearGradient2893">
      <stop
         id="stop2895"
         offset="0"
         style="stop-color: rgb(255, 255, 255); stop-opacity: 0.313726;" />
      <stop
         style="stop-color: rgb(255, 255, 255); stop-opacity: 0.25098;"
         offset="0.19"
         id="stop2897" />
      <stop
         id="stop2901"
         offset="0.60000002"
         style="stop-color: rgb(107, 107, 107); stop-opacity: 0.12549;" />
      <stop
         id="stop2899"
         offset="1"
         style="stop-color: rgb(0, 0, 0); stop-opacity: 0.12549;" />
    </linearGradient>
    <inkscape:perspective
       id="perspective28"
       inkscape:persp3d-origin="301.5 : 254.33333 : 1"
       inkscape:vp_z="603 : 381.5 : 1"
       inkscape:vp_y="0 : 1000 : 0"
       inkscape:vp_x="0 : 381.5 : 1"
       sodipodi:type="inkscape:persp3d" />
    <radialGradient
       inkscape:collect="always"
       xlink:href="#linearGradient2893"
       id="radialGradient2528"
       gradientUnits="userSpaceOnUse"
       gradientTransform="matrix(1.21503,0,0,1.26667,-839.192,-490.489)"
       cx="858.04236"
       cy="579.93323"
       fx="858.04236"
       fy="579.93323"
       r="300" />
    <radialGradient
       inkscape:collect="always"
       xlink:href="#linearGradient2893"
       id="radialGradient2531"
       gradientUnits="userSpaceOnUse"
       gradientTransform="matrix(1.21503,0,0,1.26667,-1440.692,-708.19824)"
       cx="858.04236"
       cy="579.93323"
       fx="858.04236"
       fy="579.93323"
       r="300" />
  </defs>
  <sodipodi:namedview
     id="base"
     pagecolor="#ffffff"
     bordercolor="#666666"
     borderopacity="1.0"
     inkscape:pageopacity="0.0"
     inkscape:pageshadow="2"
     inkscape:zoom="0.35"
     inkscape:cx="8.5714286"
     inkscape:cy="520"
     inkscape:document-units="px"
     inkscape:current-layer="layer1"
     showgrid="false"
     inkscape:window-width="1280"
     inkscape:window-height="750"
     inkscape:window-x="-8"
     inkscape:window-y="-8" />
  <metadata
     id="metadata7">
    <rdf:RDF>
      <cc:Work
         rdf:about="">
        <dc:format>image/svg+xml</dc:format>
        <dc:type
           rdf:resource="http://purl.org/dc/dcmitype/StillImage" />
      </cc:Work>
    </rdf:RDF>
  </metadata>
  <g
     inkscape:label="Ebene 1"
     inkscape:groupmode="layer"
     id="layer1"
     transform="translate(601.5,62.07243)">
    <g
       id="g2539"
       transform="matrix(0.7960199,0,0,0.7960199,-112.69403,121.22686)">
      <path
         d="M -599.99919,-216.20924 L -599.99919,242.65976 C -599.99919,408.97076 -465.68519,543.79076 -299.99919,543.79076 C -134.31319,543.79076 0.00081,408.97076 0.00081,242.65976 L 0.00081,-216.20924 L -599.99919,-216.20924 z"
         id="path2507"
         style="fill:#e20909" />
      <path
         id="path2483"
         d="M -599.99919,-216.20924 L -599.99919,242.65976 C -599.99919,408.97076 -465.68519,543.79076 -299.99919,543.79076 L -299.99919,-216.20924 L -599.99919,-216.20924 L -599.99919,-216.20924 z"
         style="fill:#2b5df2" />
      <line
         id="line2487"
         y2="-216.20924"
         x2="-300.00021"
         y1="543.78979"
         x1="-300.00021"
         style="fill:none;stroke:#000000;stroke-width:3" />
      <path
         id="path2489"
         d="M -599.99919,-90.87724 L -85.17119,452.81976 C -42.23019,408.59976 -12.72219,351.18176 -3.27119,287.18976 L -479.99919,-216.20924 L -599.99919,-216.20924 L -599.99919,-90.87724 L -599.99919,-90.87724 z"
         style="fill:#fcef3c;fill-opacity:1" />
      <path
         id="path2491"
         d="M -3.27119,287.19076 L -479.99919,-216.20924"
         style="fill:none;stroke:#000000;stroke-width:3" />
      <path
         id="path2493"
         d="M -599.99919,-90.87724 L -85.17119,452.81976"
         style="fill:none;stroke:#000000;stroke-width:3" />
      <path
         style="fill:none;fill-opacity:1;stroke:#000000;stroke-width:3;stroke-miterlimit:4;stroke-dasharray:none;stroke-opacity:1"
         d="M -600,-216.20924 L -600,242.6587 C -600,408.9693 -465.68546,543.79076 -300.00007,543.79076 C -134.3146,543.79076 0,408.9693 0,242.6587 L 0,-216.20924 L -600,-216.20924 z"
         id="path3239" />
    </g>
  </g>
</svg>

<svg xmlns="http://www.w3.org/2000/svg" width="500" height="627.36" version="1.0"><defs><linearGradient id="a"><stop offset="0" style="stop-color:#fff;stop-opacity:.313726"/><stop style="stop-color:#fff;stop-opacity:.25098" offset=".19"/><stop offset=".6" style="stop-color:#6b6b6b;stop-opacity:.12549"/><stop offset="1" style="stop-color:#000;stop-opacity:.12549"/></linearGradient></defs><path d="M-600-216.21v458.87c0 166.31 134.315 301.13 300 301.13 165.687 0 300-134.82 300-301.13v-458.87h-600z" style="fill:#e20909" transform="matrix(.79602 0 0 .79602 488.806 183.3)"/><path d="M-600-216.21v458.87c0 166.31 134.315 301.13 300 301.13v-760h-300z" style="fill:#2b5df2" transform="matrix(.79602 0 0 .79602 488.806 183.3)"/><path style="fill:none;stroke:#000;stroke-width:3" d="M-300 543.79v-759.999" transform="matrix(.79602 0 0 .79602 488.806 183.3)"/><path d="M-600-90.877-85.17 452.82c42.94-44.22 72.449-101.638 81.9-165.63L-480-216.21h-120v125.333z" style="fill:#fcef3c;fill-opacity:1" transform="matrix(.79602 0 0 .79602 488.806 183.3)"/><path d="M-3.271 287.19-480-216.21M-600-90.877-85.17 452.82" style="fill:none;stroke:#000;stroke-width:3" transform="matrix(.79602 0 0 .79602 488.806 183.3)"/><path style="fill:none;fill-opacity:1;stroke:#000;stroke-width:3;stroke-miterlimit:4;stroke-dasharray:none;stroke-opacity:1" d="M-600-216.21V242.66c0 166.31 134.315 301.132 300 301.132S0 408.969 0 242.659V-216.21h-600z" transform="matrix(.79602 0 0 .79602 488.806 183.3)"/></svg>
